48x48/apps/ao-app.svg

<svg height="48" width="48" xmlns="http://www.w3.org/2000/svg"><path d="m24.108 4.002a4.58 4.58 0 0 0 -2.391.606l-13.434 7.726a4.545 4.545 0 0 0 -2.283 3.94v15.452c0 1.625.87 3.127 2.283 3.939l13.815 4.22a4.581 4.581 0 0 0 4.566 0l8.784-5.21a4.545 4.545 0 0 0 2.283-3.94l4.269-14.462c0-1.625-.87-3.127-2.283-3.939l-13.435-7.726a4.58 4.58 0 0 0 -2.175-.607z" fill="#17c7e1"/><path d="m6 31.726v1a4.566 4.548 0 0 0 2.283 3.938l13.434 7.726a4.566 4.548 0 0 0 4.566 0l13.434-7.727a4.566 4.548 0 0 0 2.283-3.938v-1a4.566 4.548 0 0 1 -2.283 3.938l-13.434 7.727a4.566 4.548 0 0 1 -4.566 0l-13.434-7.727a4.566 4.548 0 0 1 -2.283-3.938z" opacity=".2"/><path d="m41.61 14.44-34.684 20.023a4.566 4.548 0 0 0 1.356 1.201l13.434 7.727a4.566 4.548 0 0 0 4.566 0l13.433-7.727a4.566 4.548 0 0 0 2.285-3.937v-15.453a4.566 4.548 0 0 0 -.39-1.834z" fill="#546bdc"/><path d="m24.107 4.002a4.566 4.548 0 0 0 -2.39.606l-13.434 7.726a4.566 4.548 0 0 0 -2.283 3.94v1a4.566 4.548 0 0 1 2.283-3.94l13.434-7.726a4.566 4.548 0 0 1 2.39-.606 4.566 4.548 0 0 1 2.176.606l13.434 7.726a4.566 4.548 0 0 1 2.283 3.94v-1a4.566 4.548 0 0 0 -2.283-3.94l-13.434-7.726a4.566 4.548 0 0 0 -2.176-.606z" fill="#f4f4f7" opacity=".2"/><path d="m41.61 14.44-34.683 20.022a4.566 4.548 0 0 0 .601.652l34.082-19.674a4.566 4.548 0 0 1 .39 1.833v-1a4.566 4.548 0 0 0 -.39-1.834z" opacity=".1"/></svg>

<svg xmlns="http://www.w3.org/2000/svg" width="48" height="48" version="1"><path style="fill:#17c7e1" d="M24.108 4.002a4.58 4.58 0 0 0-2.391.606L8.283 12.334A4.545 4.545 0 0 0 6 16.274v15.452c0 1.625.87 3.127 2.283 3.939l13.815 4.22a4.581 4.581 0 0 0 4.566 0l8.784-5.21a4.545 4.545 0 0 0 2.283-3.94L42 16.273c0-1.625-.87-3.127-2.283-3.939L26.282 4.608a4.58 4.58 0 0 0-2.175-.607z"/><path style="opacity:.2" d="M6 31.726v1a4.566 4.548 0 0 0 2.283 3.938l13.434 7.726a4.566 4.548 0 0 0 4.566 0l13.434-7.727A4.566 4.548 0 0 0 42 32.725v-1a4.566 4.548 0 0 1-2.283 3.938L26.283 43.39a4.566 4.548 0 0 1-4.566 0L8.283 35.663A4.566 4.548 0 0 1 6 31.725z"/><path style="fill:#546bdc" d="M41.61 14.44 6.926 34.463a4.566 4.548 0 0 0 1.356 1.201l13.434 7.727a4.566 4.548 0 0 0 4.566 0l13.433-7.727A4.566 4.548 0 0 0 42 31.727V16.274a4.566 4.548 0 0 0-.39-1.834z"/><path style="opacity:.2;fill:#f4f4f7" d="M24.107 4.002a4.566 4.548 0 0 0-2.39.606L8.283 12.334A4.566 4.548 0 0 0 6 16.274v1a4.566 4.548 0 0 1 2.283-3.94l13.434-7.726a4.566 4.548 0 0 1 2.39-.606 4.566 4.548 0 0 1 2.176.606l13.434 7.726A4.566 4.548 0 0 1 42 17.274v-1a4.566 4.548 0 0 0-2.283-3.94L26.283 4.608a4.566 4.548 0 0 0-2.176-.606z"/><path style="opacity:.1" d="M41.61 14.44 6.927 34.462a4.566 4.548 0 0 0 .601.652L41.61 15.44A4.566 4.548 0 0 1 42 17.273v-1a4.566 4.548 0 0 0-.39-1.834z"/></svg>
